X:1
T:ET INCARNATUS EST
T: Mariano Garau
T:ET INCARNATUS EST
T:©
T:©
T:©
T:©
T:©
T:©
T:©
T:©
T:©
T:©
T:©
C:Mariano Garau
Z:©
%%score [ 1 2 3 4 ]
L:1/8
Q:1/4=80
M:2/2
K:Dmin
V:1 treble nm="Soprano" snm="S."
V:2 treble nm="Alto" snm="A."
V:3 treble-8 nm="Tenore" snm="T."
V:4 bass nm="Basso" snm="B."
V:1
 z4!mf! d4 | c2 B2 c2 B2 | A6 A2 | A4 G2 F2 | G4 A4 | d2 e2 d2 g2 | (f2 e2) (d2 c2) | d6 d2 | %8
w: Et|in- car- na- tus|est de|Spi- ri- tu|San- cto|ex Ma- ri- a|Vir- * gi- *|ne: Et|
 c2 d2 B2 B2 | A6!>(! A2 | G2 A2 D2 D2!>)! | %11
w: ho- mo fa- ctus|est, et|ho- mo fa- ctus|
[Q:1/4=77][Q:1/4=77][Q:1/4=77][Q:1/4=77] !fermata!D8[Q:1/4=74][Q:1/4=71][Q:1/4=68][Q:1/4=65][Q:1/4=74][Q:1/4=71][Q:1/4=68][Q:1/4=65][Q:1/4=62][Q:1/4=38][Q:1/4=62][Q:1/4=38][Q:1/4=74][Q:1/4=71][Q:1/4=68][Q:1/4=65][Q:1/4=62][Q:1/4=38][Q:1/4=74][Q:1/4=71][Q:1/4=68][Q:1/4=65][Q:1/4=62][Q:1/4=38] | %12
w: est.|
[Q:1/4=80]!mp![Q:1/4=80][Q:1/4=80][Q:1/4=80] G8 | (A2 G2) (A2 B2) | A4 A4- | A2!<(! G2 (A2 G2) | %16
w: Et|in- * car- *|na- tus|_ de Spi- *|
 A2 B2 A4!<)! | e4!f! (e2 d2) | e2 g2 g2 d2 | e6 e2 | (e2 d2) A2 G2 | A4 A4- | A2!>(! A2 (A2 G2) | %23
w: ri- tu San-|cto, et _|in- car- na- tus|est, de|Spi- * ri- tu|San- cto,|_ de Spi- *|
 c2 A2[Q:1/4=77][Q:1/4=74][Q:1/4=71][Q:1/4=77][Q:1/4=74][Q:1/4=71][Q:1/4=77][Q:1/4=74][Q:1/4=71][Q:1/4=77][Q:1/4=74][Q:1/4=71] A4!>)![Q:1/4=68][Q:1/4=65][Q:1/4=62][Q:1/4=68][Q:1/4=65][Q:1/4=62][Q:1/4=68][Q:1/4=65][Q:1/4=62][Q:1/4=68][Q:1/4=65][Q:1/4=62] | %24
w: ri- tu San-|
[Q:1/4=38][Q:1/4=38][Q:1/4=38][Q:1/4=38] !fermata!A4[Q:1/4=80]!mf![Q:1/4=80][Q:1/4=80][Q:1/4=80] D2 D2 || %25
w: cto. Ex Ma-|
[K:Gmin] D4 G4 | D6 A2 | A4!<(! B4 | (A2 G2) A4 | d4!<)! d4 | (c2 B2) c2 d2 |!f! f6 f2 | d8 | %33
w: ri- a|Vir- gi-|ne, ex|Ma- * ri-|a, ex|Ma- * ri- a|Vir- gi-|ne:|
 (G2 A2) B4 | G4 (c2 d2) | e4 c4 |!>(! B6 B2 | (A4 G4) | %38
w: Et _ ho-|mo, et _|ho- mo|fa- ctus|est, _|
 G4[Q:1/4=77][Q:1/4=74][Q:1/4=71][Q:1/4=77][Q:1/4=74][Q:1/4=71][Q:1/4=77][Q:1/4=74][Q:1/4=71][Q:1/4=77][Q:1/4=74][Q:1/4=71] ^F4!>)![Q:1/4=68][Q:1/4=65][Q:1/4=62][Q:1/4=68][Q:1/4=65][Q:1/4=62][Q:1/4=68][Q:1/4=65][Q:1/4=62][Q:1/4=68][Q:1/4=65][Q:1/4=62] | %39
w: fa- ctus|
[Q:1/4=52][Q:1/4=52][Q:1/4=52][Q:1/4=52] !fermata!G8 |[Q:1/4=80][Q:1/4=80][Q:1/4=80][Q:1/4=80] z8 | %41
w: est.||
 z8 |!f! d2 d2 A4 | A4 A2 G2 | G2 F2 F4 | F6 G2 | E2 E2 B2 _A2 | %47
w: |Cru- ci- fi-|xus e- ti-|am pro- no-|bis: sub|Pon- ti- o Pi-|
[Q:1/4=77][Q:1/4=77][Q:1/4=77][Q:1/4=77] _A2[Q:1/4=74][Q:1/4=71][Q:1/4=74][Q:1/4=71][Q:1/4=74][Q:1/4=71][Q:1/4=74][Q:1/4=71] G2[Q:1/4=68][Q:1/4=65][Q:1/4=68][Q:1/4=65][Q:1/4=68][Q:1/4=65][Q:1/4=68][Q:1/4=65] G2[Q:1/4=62][Q:1/4=26][Q:1/4=62][Q:1/4=26][Q:1/4=62][Q:1/4=26][Q:1/4=62][Q:1/4=26] !fermata!F2 | %48
w: la- to- pas- sus,|
[Q:1/4=80]!mp![Q:1/4=80][Q:1/4=80][Q:1/4=80] G6 G2 | G6 G2 | G6!>(! G2 | %51
w: et se-|pul- tus|est, se-|
 D4[Q:1/4=77][Q:1/4=77][Q:1/4=77][Q:1/4=77] D4!>)![Q:1/4=74][Q:1/4=71][Q:1/4=68][Q:1/4=65][Q:1/4=74][Q:1/4=71][Q:1/4=68][Q:1/4=65][Q:1/4=62][Q:1/4=74][Q:1/4=71][Q:1/4=68][Q:1/4=65][Q:1/4=62][Q:1/4=62][Q:1/4=74][Q:1/4=71][Q:1/4=68][Q:1/4=65][Q:1/4=62] | %52
w: pul- tus|
[Q:1/4=52][Q:1/4=52][Q:1/4=52][Q:1/4=52] !fermata!D8 || %53
w: est.|
[K:Dmin][Q:1/4=80]!mf![Q:1/4=80][Q:1/4=80][Q:1/4=80] d4 d2 d2 | c2 c2 A4 | (A4 G2) F2 | G4 D2 E2 | %57
w: Et in- car-|na- tus est|de _ _|Spi- ri- tu|
 F4 D4 | d2 d2 c2 c2 | c2 c2 A4- | A2!>(! A2 A4 | %61
w: San- cto|ex Ma- ri- a|Vir- gi- ne|_ et ho-|
 (G2 F2)[Q:1/4=77][Q:1/4=77][Q:1/4=77][Q:1/4=77] G2[Q:1/4=74][Q:1/4=71][Q:1/4=68][Q:1/4=65][Q:1/4=74][Q:1/4=71][Q:1/4=68][Q:1/4=65][Q:1/4=74][Q:1/4=71][Q:1/4=68][Q:1/4=65][Q:1/4=74][Q:1/4=71][Q:1/4=68][Q:1/4=65] G2!>)![Q:1/4=62][Q:1/4=62][Q:1/4=62][Q:1/4=62] | %62
w: mo _ fa- ctus|
[Q:1/4=52][Q:1/4=52][Q:1/4=52][Q:1/4=52] !fermata!A8 | %63
w: est.|
[Q:1/4=80]!mp![Q:1/4=80][Q:1/4=80][Q:1/4=80] G8 | (A2 G2) (A2 B2) | A4 A4- | A2!<(! G2 (A2 G2) | %67
w: Et|in- * car- *|na- tus|_ de Spi- *|
 A2 B2 A4!<)! | e4!f! e2 d2 | e2 g2 g2 d2 | e6 e2 | e2 d2 A2 G2 | A6!>(! A2 | A4 G4 | %74
w: ri- tu San-|cto ex Ma-|ri- a Vir- gi-|ne: et|ho- mo fa- ctus|est, et|ho- mo|
[Q:1/4=75]"^Rall."[Q:1/4=75][Q:1/4=75][Q:1/4=75] c4[Q:1/4=71][Q:1/4=66][Q:1/4=62][Q:1/4=58][Q:1/4=71][Q:1/4=66][Q:1/4=62][Q:1/4=58][Q:1/4=71][Q:1/4=66][Q:1/4=62][Q:1/4=58][Q:1/4=71][Q:1/4=66][Q:1/4=62][Q:1/4=58] A4!>)![Q:1/4=53][Q:1/4=49][Q:1/4=53][Q:1/4=49][Q:1/4=53][Q:1/4=49][Q:1/4=53][Q:1/4=49] | %75
w: fa- ctus|
[Q:1/4=52][Q:1/4=52][Q:1/4=52][Q:1/4=52] !fermata!A8 |] %76
w: est.|
V:2
 z8 | z8 | z8 | z8 | z8 |!<(! z8!<)! | z8 | z8 | z8 | z8 | z8 | z8 |!mp! D8 | (E2 D2) (E2 F2) | %14
w: ||||||||||||Et|in- * car- *|
 E4 E4- | E2!<(! D2 (E2 D2) | E2 F2 E4!<)! | E4!f! (A2 G2) | A2 B2 B2 B2 | A6 A2 | F4 F2 F2 | %21
w: na- tus|_ de Spi- *|ri- tu San-|cto et _|in- car- na- tus|est, de|Spi- ri- tu|
 E4 E4- | E2!>(! E2 D4 | D2 D2 D4!>)! | !fermata!D4!mf! D2 D2 ||[K:Gmin] D4 D4 | D6 D2 | %27
w: San- cto,|_ de Spi-|ri- tu San-|cto. Ex Ma-|ri- a|Vir- gi-|
 D4!<(! B,4 | B,4 D4 | D4!<)! G4 | G4 G2 G2 |!f! F6 F2 | G8 | D4 G4 | G4 G4 | c4 G4 |!>(! G6 G2 | %37
w: ne, ex|Ma- ri-|a, ex|Ma- ri- a|Vir- gi-|ne:|Et ho-|mo, et|ho- mo|fa- ctus|
 (E4 D4) | D4 D4!>)! | !fermata!D8 | z4!f! G2 G2 | ^C4 D4 | D2 D2 D4 | D4 D2 D2 | C2 C2 =B,4 | %45
w: est, _|fa- ctus|est.|Cru- ci-|fi- xus,|cru- ci- fi-|xus e- ti-|am pro- no-|
 =B,6 B,2 | D2 C2 C2 C2 | D2 D2 D2 !fermata!D2 |!mp! D6 D2 | _D6 D2 | D6!>(! D2 | C4 C4!>)! | %52
w: bis: sub|Pon- ti- o Pi-|la- to pas- sus,|et se-|pul- tus|est, se-|pul- tus|
 !fermata!B,8 ||[K:Dmin]!mf! G4 G2 G2 | G2 G2 F4 | E8 | D4 D2 D2 | D4 D4 | G2 G2 G2 G2 | %59
w: est.|Et in- car-|na- tus est|de|Spi- ri- tu|San- cto|ex Ma- ri- a|
 G2 G2 F4- | F2!>(! F2 E4 | E4 D2 D2!>)! | !fermata!D8 |!mp! D8 | (E2 D2) (E2 F2) | E4 E4- | %66
w: Vir- gi- ne:|_ et ho-|mo fa- ctus|est.|Et|in- * car- *|na- tus|
 E2!<(! D2 (E2 D2) | E2 F2 E4!<)! | E4!f! A2 G2 | A2 B2 B2 B2 | A6 A2 | F2 F2 F2 F2 | E6!>(! E2 | %73
w: _ de Spi- *|ri- tu San-|cto ex Ma-|ri- a Vir- gi-|ne: et|ho- mo fa- ctus|est, et|
 D4 D4 |"^Rall." D4 D4!>)! | !fermata!^F8 |] %76
w: ho- mo|fa- ctus|est.|
V:3
!mf! A4 A2 A2 | A2 A2 A4 | d4 c2 B2 | c2 B2 A4- | A2 A2 A4 | G2 F2 G4 | A4!<(! d2 e2 | %7
w: Et in- car-|na- tus est,|et in- car-|na- tus est|_ de Spi-|ri- tu San-|cto ex Ma-|
 d2 g2 (f2 e2)!<)! | (d2 c2) d4- | d2 d2 c2 d2 |!>(! B2 B2 A4 | B2 B2!>)! !fermata!c4 |!mp! B8 | %13
w: ri- a Vir- *|gi- * ne:|_ Et ho- mo|fa- ctus est,|fa- ctus est.|Et|
 (c2 B2) (c2 d2) | c4 c4- | c2!<(! B2 (c2 B2) | c2 d2 c4!<)! | c4!f! (e2 d2) | e2 f2 f2 f2 | %19
w: in- * car- *|na- tus|_ de Spi- *|ri- tu San-|cto et _|in- car- na- tus|
 e6 e2 | d4 d2 d2 | c4 c4- | c2!>(! c2 B4 | B2 c2 c4!>)! | !fermata!A4!mf! B2 B2 ||[K:Gmin] B4 B4 | %26
w: est, de|Spi- ri- tu|San- cto,|_ de Spi-|ri- tu San-|cto. Ex Ma-|ri- a|
 A6 A2 | A4!<(! G4 | G4 F4 | F4!<)! G4 | G4 G2 G2 |!f! A6 A2 | B8 | (B2 c2) d4 | e4 (e2 f2) | %35
w: Vir- gi-|ne, ex|Ma- ri-|a, ex|Ma- ri- a|Vir- gi-|ne:|Et _ ho-|mo, et _|
 g4 e4 |!>(! d6 d2 | (c4 B4) | A4 A4!>)! | !fermata!B8 |!f! G6 G2 | G4 G4 | G2 G2 G4 | G4 G2 G2 | %44
w: ho- mo|fa- ctus|est, _|fa- ctus|est.|Cru- ci-|fi- xus,|cru- ci- fi-|xus e- ti-|
 _A2 A2 A4 | _A6 G2 | G2 G2 _A2 A2 | B2 B2 _A2 !fermata!A2 |!mp! B6 B2 | B6 B2 | B6!>(! B2 | %51
w: am pro- no-|bis: sub|Pon- ti- o Pi-|la- to pas- sus,|et se-|pul- tus|est, se-|
 (^F2 G2) (A2 F2)!>)! | !fermata!G8 ||[K:Dmin]!mf! d4 d2 d2 | e2 e2 d4 | c8 | B4 B2 B2 | A4 A4 | %58
w: pul- * tus _|est.|Et in- car-|na- tus est|de|Spi- ri- tu|San- cto|
 d2 d2 e2 e2 | e2 e2 d4- | d2!>(! d2 c4 | c4 B2 B2!>)! | !fermata!A8 |!mp! B8 | (c2 B2) (c2 d2) | %65
w: ex Ma- ri- a|Vir- gi- ne|_ et ho-|mo fa- ctus|est.|Et|in- * car- *|
 c4 c4- | c2!<(! B2 (c2 B2) | c2 d2 c4!<)! | c4!f! e2 d2 | e2 f2 f2 f2 | e6 e2 | d2 d2 d2 d2 | %72
w: na- tus|_ de Spi- *|ri- tu San-|cto ex Ma-|ri- a Vir- gi-|ne: et|ho- mo fa- ctus|
 c6!>(! c2 | B4 B4 |"^Rall." A4 c4!>)! | !fermata!d8 |] %76
w: est, et|ho- mo|fa- ctus|est.|
V:4
!mf! D,8 | D,2 D,2 D,2 D,2 | D,6 D,2 | D,4 D,2 D,2 | D,4 D,4 | D,2 D,2 D,2 D,2 | D,4 D,4 | %7
w: Et|in- car- na- tus|est de|Spi- ri- tu|San- cto|ex Ma- ri- a|Vir- gi-|
 D,6 D,2 | D,2 D,2 D,2 D,2 | D,6!>(! D,2 | D,4 D,4 | D,2 D,2!>)! !fermata!D,4 |!mp! G,8 | G,4 G,4 | %14
w: ne: Et|ho- mo fa- ctus|est, et|ho- mo|fa- ctus est.|Et|in- car-|
 G,4 G,4- | G,2!<(! G,2 G,4 | G,2 G,2 G,4!<)! | G,4!f! (C2 B,2) | C2 D2 D2 D2 | C6 C2 | %20
w: na- tus|_ de Spi-|ri- tu San-|cto et _|in- car- na- tus|est, de|
 B,4 B,2 B,2 | G,4 G,4- | G,2!>(! G,2 G,4 | G,2 G,2 G,4!>)! | !fermata!D,4!mf! G,2 G,2 || %25
w: Spi- ri- tu|San- cto,|_ de Spi-|ri- tu San-|cto. Ex Ma-|
[K:Gmin] G,4 G,4 | F,6 F,2 | F,4!<(! E,4 | E,4 D,4 | D,4!<)! E,4 | E,4 E,2 E,2 |!f! D,6 D,2 | G,8 | %33
w: ri- a|Vir- gi-|ne, ex|Ma- ri-|a, ex|Ma- ri- a|Vir- gi-|ne:|
 G,4 G,4 | C4 C4 | C4 C4 |!>(! G,6 G,2 | G,8 | D,4 D,4!>)! | !fermata!G,,8 |!f! G,6 G,2 | G,4 F,4 | %42
w: Et ho-|mo, et|ho- mo|fa- ctus|est,|fa- ctus|est.|Cru- ci-|fi- xus,|
 F,2 F,2 E,4 | E,4 E,2 E,2 | E,2 E,2 D,4 | D,6 D,2 | C,2 C,2 C,2 C,2 | %47
w: cru- ci- fi-|xus e- ti-|am pro- no-|bis: sub|Pon- ti- o Pi-|
 B,,2 B,,2 B,,2 !fermata!B,,2 |!mp! E,6 E,2 | E,6 E,2 | D,6!>(! D,2 | D,4 D,4!>)! | %52
w: la- to pas- sus,|et se-|pul- tus|est, se-|pul- tus|
 !fermata!G,,8 ||[K:Dmin]!mf! B,4 B,2 B,2 | A,2 A,2 A,4 | A,8 | G,4 G,2 G,2 | D,4 D,4 | %58
w: est.|Et in- car-|na- tus est|de|Spi- ri- tu|San- cto|
 B,2 B,2 A,2 A,2 | A,2 A,2 A,4- | A,2!>(! A,2 A,4 | A,4 G,2 G,2!>)! | !fermata!D,8 |!mp! G,8 | %64
w: ex Ma- ri- a|Vir- gi- ne|_ et ho-|mo fa- ctus|est.|Et|
 G,4 G,4 | G,4 G,4- | G,2!<(! G,2 G,4 | G,2 G,2 G,4!<)! | G,4!f! C2 B,2 | C2 D2 D2 D2 | C6 C2 | %71
w: in- car-|na- tus|_ de Spi-|ri- tu San-|cto ex Ma-|ri- a Vir- gi-|ne: et|
 B,2 B,2 B,2 B,2 | G,6!>(! G,2 | G,4 G,4 |"^Rall." G,4 G,4!>)! | !fermata![D,A,]8 |] %76
w: ho- mo fa- ctus|est, et|ho- mo|fa- ctus|est.|

